X: 238
T: Thou of the Beautiful Hair
B: O'Neill's 238
N: "Moderate"
N: "Collected by J.O'Neill"
Z: 1997 by John Chambers <jc@trillian.mit.edu>
M: C
L: 1/8
K:G
d>c \
|.B2.B2 BAGB|.d2.d2 fedf|g2B2 BAGB|c4 d2dc|
|.B2.B2 BAGB|.d2.d2 fedf|ed BG A3G|G4 G2||
||de \
|f2d2 f2de|fe 3dBA B2de|f2 3edB g2B2|~c4 ded2dc|
|.B2.B2 BAGB|.d2.d2 fedf|ed BG A3G|G4 G2||
